public/topics/39.svg

<svg width="250" height="250" viewBox="0 0 250 250" fill="none" xmlns="http://www.w3.org/2000/svg">
<rect width="250" height="250" rx="30" fill="#B0E0E6"/>
<path d="M81 115C91.9333 117.4 101 122.133 108.2 129.2C115.4 136.267 119 144.467 119 153.8C119 159.4 117.667 164.867 115 170.2C110.733 178.733 104.333 185.133 95.8 189.4C87.4 193.667 77.6667 195.8 66.6 195.8C59.6667 195.8 53.4667 194.533 48 192C42.5333 189.333 37.1333 185.8 31.8 181.4C29.8 179.533 28 176.867 26.4 173.4C24.9333 169.933 24.2 167.067 24.2 164.8C24.2 161.867 25 159.533 26.6 157.8C28.3333 155.933 30.6 155 33.4 155C36.2 155 38.4 155.667 40 157C41.6 158.333 43.5333 160.467 45.8 163.4C47.9333 166.2 49.8667 168.467 51.6 170.2C53.3333 171.8 55.6667 173.2 58.6 174.4C61.5333 175.6 65.2 176.2 69.6 176.2C78.5333 176.2 85.5333 174 90.6 169.6C95.6667 165.2 98.2 159 98.2 151C98.2 147.933 96.5333 144.867 93.2 141.8C89.8667 138.6 86.7333 136.333 83.8 135C82.0667 134.067 78.8667 133.133 74.2 132.2C67.9333 130.6 63.2 129.067 60 127.6C56.9333 126 55.4 123.533 55.4 120.2C55.4 117.933 56.4 115.733 58.4 113.6C60.4 111.333 63.4 108.533 67.4 105.2C71.4 101.867 74.4 99.1333 76.4 97C78.4 94.7333 79.4 92.4667 79.4 90.2C76.8667 89.5333 73.0667 89.2 68 89.2C65.7333 89.2 62.3333 89.3333 57.8 89.6C53.8 89.8667 50.7333 90 48.6 90C43.8 90 39.6667 89.2 36.2 87.6C32.8667 86 31.2 83.9333 31.2 81.4C31.2 78.6 31.4667 76.4 32 74.8C32.5333 73.0667 33.5333 72 35 71.6C35.9333 71.2 37.6 71 40 71C46.5333 71 52.2 71.2 57 71.6C62.3333 71.8667 66.4 72 69.2 72L85.8 71.8C99.4 71.8 106.2 75.0667 106.2 81.6C106.2 86.5333 103.667 92.1333 98.6 98.4C93.6667 104.533 87.8 110.067 81 115ZM168.984 175.4C173.518 173.933 177.851 171.267 181.984 167.4C186.251 163.533 189.784 159.2 192.584 154.4C195.518 149.467 197.251 144.733 197.784 140.2C194.051 142.867 190.251 144.733 186.384 145.8C182.518 146.867 178.051 147.4 172.984 147.4C166.184 147.4 160.584 146.267 156.184 144C151.784 141.6 147.118 138.2 142.184 133.8C141.384 133 140.384 131.267 139.184 128.6C137.984 125.8 136.918 122.4 135.984 118.4C135.051 114.267 134.584 110.067 134.584 105.8C134.584 101.933 135.784 97.8667 138.184 93.6C140.584 89.3333 143.584 85.5333 147.184 82.2C150.918 78.7333 154.451 76.2667 157.784 74.8C160.851 73.4667 164.384 72.3333 168.384 71.4C172.518 70.3333 175.984 69.8 178.784 69.8C188.251 69.8 196.184 72 202.584 76.4C209.118 80.8 213.918 86.6667 216.984 94C220.051 101.333 221.584 109.467 221.584 118.4C221.584 133.733 218.184 147.733 211.384 160.4C204.584 172.933 195.984 182.667 185.584 189.6C183.851 190.8 180.851 192.133 176.584 193.6C172.451 194.933 168.651 195.6 165.184 195.6C162.518 195.6 160.184 194.4 158.184 192C156.184 189.6 155.184 186.867 155.184 183.8C155.184 181.667 155.918 180.2 157.384 179.4C158.851 178.467 161.251 177.533 164.584 176.6L168.984 175.4ZM178.784 86.8C176.651 86.8 174.118 87.2667 171.184 88.2C168.384 89 165.984 90 163.984 91.2C161.718 92.5333 159.518 94.6 157.384 97.4C155.384 100.067 154.384 102.133 154.384 103.6C154.384 121.067 161.451 129.8 175.584 129.8C178.784 129.8 182.318 129.133 186.184 127.8C190.184 126.333 193.518 124.333 196.184 121.8C198.851 119.267 200.184 116.4 200.184 113.2C200.184 104.4 198.318 97.8 194.584 93.4C190.984 89 185.718 86.8 178.784 86.8Z" fill="white"/>
</svg>

<svg xmlns="http://www.w3.org/2000/svg" width="250" height="250" fill="none" viewBox="0 0 250 250"><rect width="250" height="250" fill="#b0e0e6" rx="30"/><path fill="#fff" d="M81 115q16.4 3.6 27.2 14.2t10.8 24.6q0 8.4-4 16.4-6.4 12.8-19.2 19.2-12.6 6.4-29.2 6.4-10.4 0-18.6-3.8-8.2-4-16.2-10.6-3-2.8-5.4-8-2.2-5.2-2.2-8.6 0-4.4 2.4-7 2.6-2.8 6.8-2.8t6.6 2 5.8 6.4q3.2 4.2 5.8 6.8 2.6 2.4 7 4.2t11 1.8q13.4 0 21-6.6t7.6-18.6q0-4.6-5-9.2-5-4.8-9.4-6.8-2.6-1.4-9.6-2.8-9.4-2.4-14.2-4.6-4.6-2.4-4.6-7.4 0-3.4 3-6.6 3-3.4 9-8.4t9-8.2q3-3.4 3-6.8-3.8-1-11.4-1-3.4 0-10.2.4-6 .4-9.2.4-7.2 0-12.4-2.4-5-2.4-5-6.2 0-4.2.8-6.6.8-2.6 3-3.2 1.4-.6 5-.6 9.8 0 17 .6 8 .4 12.2.4l16.6-.2q20.4 0 20.4 9.8 0 7.4-7.6 16.8-7.4 9.2-17.6 16.6m87.984 60.4q6.8-2.2 13-8 6.4-5.8 10.6-13 4.4-7.4 5.2-14.2-5.6 4-11.4 5.6t-13.4 1.6q-10.2 0-16.8-3.4-6.6-3.6-14-10.2-1.2-1.2-3-5.2-1.8-4.2-3.2-10.2a57 57 0 0 1-1.4-12.6q0-5.8 3.6-12.2t9-11.4q5.6-5.2 10.6-7.4 4.6-2 10.6-3.4 6.2-1.6 10.4-1.6 14.2 0 23.8 6.6 9.801 6.6 14.4 17.6t4.6 24.4q0 23-10.2 42-10.2 18.8-25.8 29.2-2.6 1.8-9 4-6.2 2-11.4 2-4 0-7-3.6t-3-8.2q0-3.2 2.2-4.4 2.2-1.4 7.2-2.8zm9.8-88.6q-3.2 0-7.6 1.4-4.2 1.2-7.2 3-3.399 2-6.6 6.2-3 4-3 6.2 0 26.2 21.2 26.2 4.8 0 10.6-2 6-2.2 10-6t4-8.6q0-13.2-5.6-19.8-5.4-6.6-15.8-6.6"/></svg>
